X: 23
T: Man Of The House, The
Z: leprecawn
S: https://thesession.org/tunes/222#setting52343
R: reel
M: 4/4
L: 1/8
K: Emin
E2 BE GABG|E2 BE FDAD|E2 BE GABc|dBAG FDDF|
E2 BE GABG|E2 BE FDAD|E2 BE GABc|dBAG FDD2||
efge fgaf|gfed edBd|efge fgaf|gfed Be e2|
efge fgaf|gfed efga|bgaf gfed|edBA GEED||

